src/categories-icons-sprite/categories/svg-cat-child-outwear.svg

<svg width="37" height="37" viewBox="0 0 37 37" fill="none" xmlns="http://www.w3.org/2000/svg">
<path class="p-F8E99B" d="M8.60547 6.02327C8.60547 2.69659 12.8432 0 18.0706 0C23.2981 0 27.5357 2.69659 27.5357 6.02327V11.1861H8.60547V6.02327Z" fill="#B9DFFC"/>
<path class="p-F5DC60" d="M27.5354 6.02327V11.1861H18.0703V0C23.2978 0 27.5354 2.69659 27.5354 6.02327Z" fill="#A1D1FD"/>
<path class="p-99A1EA" d="M27.5357 6.02344H8.60547V11.1862H27.5357V6.02344Z" fill="#58ADE5"/>
<path class="p-717AE1" d="M27.5354 6.02344H18.0703V11.1862H27.5354V6.02344Z" fill="#4D98CB"/>
<path class="p-F8E99B" d="M0 15.4886L8.60467 6.02344L18.0698 10.8884L27.5349 6.02344L36.1396 15.4886L35.2791 19.7908L28.3954 14.0655L30.1163 32.9957L18.0698 37.0002L6.02327 32.9957L7.7442 14.0655L0.860467 19.7908L0 15.4886Z" fill="#B9DFFC"/>
<path class="p-F5DC60" d="M27.5354 6.02344L36.1401 15.4886L35.2797 19.7908L28.3959 14.0655L30.1168 32.9957L18.0703 37.0002V10.8884L27.5354 6.02344Z" fill="#A1D1FD"/>
<path class="p-58575D" d="M22.803 17.6396C21.854 17.6396 21.082 16.8676 21.082 15.9187C21.082 14.9698 21.854 14.1978 22.803 14.1978C23.7519 14.1978 24.5239 14.9698 24.5239 15.9187C24.5239 16.8676 23.7519 17.6396 22.803 17.6396Z" fill="#4D98CB"/>
<path class="p-58575D" d="M22.803 23.6624H22.8026C21.854 23.6624 21.082 22.8905 21.082 21.9416C21.082 20.9927 21.854 20.2207 22.803 20.2207C23.752 20.2207 24.5239 20.9927 24.5239 21.9416C24.5239 22.8906 23.7519 23.6624 22.803 23.6624Z" fill="#4D98CB"/>
<path class="p-58575D" d="M22.803 29.6859H22.8026C21.854 29.6859 21.082 28.9139 21.082 27.9651C21.082 27.0162 21.854 26.2441 22.803 26.2441C23.752 26.2441 24.5239 27.0162 24.5239 27.9651C24.5239 28.914 23.7519 29.6859 22.803 29.6859Z" fill="#4D98CB"/>
</svg>

<svg width="37" height="37" fill="none" xmlns="http://www.w3.org/2000/svg"><path class="p-F8E99B" d="M8.605 6.023C8.605 2.697 12.843 0 18.071 0c5.227 0 9.465 2.697 9.465 6.023v5.163H8.606V6.023z" fill="#B9DFFC"/><path class="p-F5DC60" d="M27.535 6.023v5.163H18.07V0c5.228 0 9.465 2.697 9.465 6.023z" fill="#A1D1FD"/><path class="p-99A1EA" d="M27.536 6.023H8.606v5.163h18.93V6.023z" fill="#58ADE5"/><path class="p-717AE1" d="M27.535 6.023H18.07v5.163h9.465V6.023z" fill="#4D98CB"/><path class="p-F8E99B" d="M0 15.489l8.605-9.466 9.465 4.865 9.465-4.865 8.605 9.466-.86 4.302-6.885-5.726 1.721 18.93L18.07 37 6.023 32.996l1.721-18.93L.86 19.79 0 15.489z" fill="#B9DFFC"/><path class="p-F5DC60" d="M27.535 6.023l8.605 9.466-.86 4.302-6.884-5.726 1.72 18.93L18.07 37V10.888l9.465-4.865z" fill="#A1D1FD"/><path class="p-58575D" d="M22.803 17.64a1.723 1.723 0 01-1.721-1.721c0-.95.772-1.721 1.721-1.721.949 0 1.72.772 1.72 1.72 0 .95-.771 1.722-1.72 1.722zM22.803 23.662c-.949 0-1.721-.771-1.721-1.72 0-.95.772-1.721 1.721-1.721.949 0 1.72.772 1.72 1.72 0 .95-.771 1.721-1.72 1.721zM22.803 29.686c-.949 0-1.721-.772-1.721-1.72 0-.95.772-1.722 1.721-1.722.949 0 1.72.772 1.72 1.721 0 .949-.771 1.72-1.72 1.72z" fill="#4D98CB"/></svg>
